X:1
T:Wee Cooper O' Fife
M:6/8
L:1/8
K:F
 C| FFA GGF| D2 F C3| CDE FGA| B2 A G2 A| C2 C CCC| D2 F C3| AAA cBG|\
 F2 F FGA| C2 C CDE| F2 F F2||
